/* XPM */
static char *product_logo_32[] = {
/* columns rows colors chars-per-pixel */
"32 32 74 1 ",
"  c None",
". c #1346D2",
"X c #1346D3",
"o c #1247D3",
"O c #1347D3",
"+ c #1346D4",
"@ c #1247D4",
"# c #1347D4",
"$ c #1348D4",
"% c #1348D5",
"& c #1349D5",
"* c #1448D4",
"= c #1449D5",
"- c #1449D6",
"; c #144AD6",
": c #144AD7",
"> c #144BD7",
", c #154BD8",
"< c #154CD9",
"1 c #154DDA",
"2 c #154EDB",
"3 c #164EDB",
"4 c #154EDC",
"5 c #164FDC",
"6 c #164FDD",
"7 c #1651DF",
"8 c #1751DF",
"9 c #1752E0",
"0 c #1854E2",
"q c #1855E3",
"w c #1956E4",
"e c #1957E6",
"r c #1958E7",
"t c #1A5AE9",
"y c #1A5BEA",
"u c #1A5BEB",
"i c #1B5CEB",
"p c #1B5DEC",
"a c #1B5EED",
"s c #1B5EEF",
"d c #1C5FEF",
"f c #1C60EF",
"g c #1C60F1",
"h c #1C61F1",
"j c #1D62F1",
"k c #1C61F2",
"l c #1C62F2",
"z c #1D62F2",
"x c #1C62F3",
"c c #1D62F3",
"v c #1D63F3",
"b c #1D63F4",
"n c #1C63F5",
"m c #1D63F5",
"M c #1C64F5",
"N c #1D64F5",
"B c #1D65F5",
"V c #1E64F4",
"C c #1E64F5",
"Z c #1E65F5",
"A c #1F65F5",
"S c #1C64F6",
"D c #1D64F6",
"F c #1C65F6",
"G c #1D65F6",
"H c #1D65F7",
"J c #1E65F6",
"K c #1D66F6",
"L c #1D66F7",
"P c #1E66F6",
"I c #1E66F7",
"U c #1E67F7",
"Y c #1D66F8",
"T c #1E67F8",
/* pixels */
"                                ",
"                                ",
"                                ",
"      xxxxxxxxxxxxxxx           ",
"     xxxTTTxxxxTxxTTx&          ",
"     xxxxxxTxTxxTxTTx1#         ",
"     xxxxxxTTTTTxxxxx&&&        ",
"     xxxxxTTTxxTxxxxx&###       ",
"     xxxxxy         y&###7      ",
"     xxxy1#          ##&rxx     ",
"     xx7&&#          #1yxxx     ",
"     91&&&#          wxxxxx     ",
"     ###&&#         xxxxxxx     ",
"     111779        xxxxxxx      ",
"     xxxxxxxxxxxTxTTTxxx        ",
"     xxTTTxxTxxxTTTTTxx         ",
"     xxxxxxxTTTTxxxTxw&         ",
"     xxxxxTTTTxTTTxy1###        ",
"     xxxxxxxxxxxxx9&#&##&       ",
"     xxxxw1        ##&##&w      ",
"     xxy1##         ###1yxx     ",
"     y9&###          &wxxxx     ",
"     &#####          yxxxxx     ",
"     &&&&&1         xxxxxxx     ",
"     xxxxxxxxxxxxxxxxxxxxx      ",
"     xTTTTTxTTTTxxTxxxTxx       ",
"     xxxTTxxTxTxTTTTxxxx        ",
"     xxxxxxxxxxxTxxTxx          ",
"      xxxxxxxxxxxxxxx           ",
"                                ",
"                                ",
"                                "
};
